src/static/fca-bank.svg

<svg width="245" height="28" viewBox="0 0 245 28" fill="none" xmlns="http://www.w3.org/2000/svg">
<g clip-path="url(#clip0)">
<path d="M147.231 26.5665H136.378V1.62448H146.75C151.648 1.62448 154.914 4.01355 154.914 7.74052V7.83608C154.914 11.1808 152.705 12.9009 150.688 13.761C153.665 14.5255 156.354 16.2456 156.354 19.6859V19.7815C156.162 23.8907 152.609 26.5665 147.231 26.5665ZM152.897 7.93164C152.897 5.16031 150.592 3.34461 146.654 3.34461H138.203V13.1876H146.462C150.208 13.0921 152.897 11.2764 152.897 7.93164ZM154.338 19.6859C154.338 16.6279 151.648 14.8122 146.75 14.8122H138.299V24.8463H147.423C151.552 24.8463 154.338 22.9351 154.338 19.6859ZM184.975 26.5665L181.805 19.5903H167.015L163.846 26.5665H161.925L173.642 1.43335H175.467L187.184 26.5665H184.975ZM174.41 3.44018L167.783 17.8702H181.037L174.41 3.44018ZM213.499 26.5665L195.827 4.39581V26.5665H194.002V1.62448H195.731L213.018 23.3173V1.62448H214.843V26.5665H213.499ZM242.599 26.5665L232.323 13.9521L226.08 20.2593V26.5665H224.255V1.62448H226.08V18.0613L242.023 1.62448H244.52L233.571 12.6142L245 26.5665H242.599V26.5665Z" fill="black"/>
<path d="M44.3706 2.10239H67.8046V7.16724H49.4608V13.0921H66.8441V18.157H49.4608V26.6621H44.3706V2.10239ZM92.6791 16.8191C91.6227 20.2594 88.3573 22.744 84.5156 22.744C79.8096 22.744 75.968 18.9215 75.968 14.3345C75.968 9.65188 79.8096 5.92491 84.5156 5.92491C88.3573 5.92491 91.6227 8.40956 92.6791 11.8498H97.8653C96.7128 5.63822 91.1425 0.860068 84.5156 0.860068C77.0245 0.860068 70.8779 6.88055 70.8779 14.3345C70.8779 21.7884 76.9284 27.8089 84.5156 27.8089C91.1425 27.8089 96.7128 23.1263 97.8653 16.8191H92.6791V16.8191ZM112.56 0L97.0009 26.5666H102.859L112.464 10.0341L122.068 26.5666H127.926L112.56 0Z" fill="black"/>
<path d="M36.2074 0.286621V13.3788L9.8922 27.5221C7.2991 28.7644 3.93767 27.8088 3.0733 24.9419L0 17.9658C4.32183 17.1057 11.0447 13.4743 11.0447 13.4743L30.637 3.15352L36.2074 0.286621Z" fill="black"/>
</g>
<defs>
<clipPath id="clip0">
<path d="M0 0H245V28H0V0Z" fill="white"/>
</clipPath>
</defs>
</svg>

<svg xmlns="http://www.w3.org/2000/svg" viewBox="0 0 245 28">
    <path d="M147.231 26.567h-10.853V1.623h10.372c4.898 0 8.164 2.39 8.164 6.117v.095c0 3.345-2.209 5.065-4.226 5.925 2.977.764 5.666 2.485 5.666 5.925v.096c-.192 4.109-3.745 6.785-9.123 6.785zm5.666-18.635c0-2.772-2.305-4.587-6.243-4.587h-8.451v9.843h8.259c3.746-.096 6.435-1.912 6.435-5.256zm1.441 11.754c0-3.058-2.69-4.874-7.588-4.874h-8.451v10.034h9.124c4.129 0 6.915-1.91 6.915-5.16zm30.637 6.88l-3.17-6.976h-14.79l-3.169 6.977h-1.921l11.717-25.134h1.825l11.717 25.134h-2.209zM174.41 3.44l-6.627 14.43h13.254L174.41 3.44zm39.089 23.127L195.827 4.396v22.17h-1.825V1.625h1.729l17.287 21.693V1.624h1.825v24.943h-1.344zm29.1 0l-10.276-12.615-6.243 6.307v6.308h-1.825V1.623h1.825v16.437l15.943-16.437h2.497l-10.949 10.99L245 26.567h-2.401zM44.37 2.102h23.435v5.065H49.46v5.925h17.383v5.065H49.461v8.505h-5.09V2.102zM92.68 16.82c-1.057 3.44-4.323 5.925-8.164 5.925-4.706 0-8.548-3.822-8.548-8.41 0-4.682 3.842-8.41 8.548-8.41 3.841 0 7.107 2.486 8.163 5.926h5.186C96.713 5.638 91.143.86 84.515.86c-7.49 0-13.637 6.02-13.637 13.475 0 7.453 6.05 13.474 13.638 13.474 6.626 0 12.197-4.683 13.35-10.99h-5.187zM112.56 0L97 26.567h5.859l9.605-16.533 9.604 16.533h5.858L112.56 0zM36.207.287v13.092L9.892 27.522c-2.593 1.242-5.954.287-6.819-2.58L0 17.966c4.322-.86 11.045-4.492 11.045-4.492l19.592-10.32 5.57-2.867z"/>
</svg>
